logos/chakra-ui.svg

<svg width="72" height="72" viewBox="0 0 72 72" fill="none" xmlns="http://www.w3.org/2000/svg">
<path fill-rule="evenodd" clip-rule="evenodd" d="M36 0C55.8824 0 72 16.1177 72 36C72 55.8824 55.8824 72 36 72C16.1177 72 0 55.8824 0 36C0 16.1177 16.1177 0 36 0ZM44.0265 13.1662L19.4871 37.5367C19.1322 37.8891 19.3818 38.4945 19.8819 38.4945H36.5822C37.0397 38.4945 37.3041 39.0134 37.0357 39.3837L23.9425 57.4462C23.5443 57.9953 24.2825 58.6475 24.7784 58.1847L52.4376 32.3706C52.8093 32.0235 52.5639 31.4007 52.0554 31.4007H36.2715C35.8462 31.4007 35.5758 30.9452 35.7798 30.572L44.9132 13.8321C45.2227 13.2649 44.4848 12.7109 44.0265 13.1662Z" fill="white"/>
</svg>

<svg xmlns="http://www.w3.org/2000/svg" width="72" height="72" fill="none"><path fill="#fff" fill-rule="evenodd" d="M36 0c19.882 0 36 16.118 36 36S55.882 72 36 72 0 55.882 0 36 16.118 0 36 0zm8.026 13.166l-24.539 24.37a.56.56 0 00.395.959h16.7a.56.56 0 01.454.889L23.942 57.446c-.398.55.34 1.202.836.739l27.66-25.814a.56.56 0 00-.383-.97H36.272a.56.56 0 01-.492-.829l9.133-16.74c.31-.567-.428-1.121-.886-.666z" clip-rule="evenodd"/></svg>
